Dominus_Funeral/22/apps/soundconverter.svg

<svg xmlns="http://www.w3.org/2000/svg" width="24" height="24" viewBox="0 0 6.35 6.35"><defs><linearGradient id="b"><stop offset="0"/><stop offset="1" stop-opacity="0"/></linearGradient><linearGradient id="a"><stop offset="0" stop-color="#000200"/><stop offset="1" stop-color="#000200" stop-opacity="0"/></linearGradient><linearGradient id="c" x1="24.82" x2="25" y1="15.38" y2="37.28" gradientTransform="matrix(.79363 0 0 .9639 65.3 -7.76)" gradientUnits="userSpaceOnUse"><stop offset="0" stop-color="#eacfb0"/><stop offset=".24" stop-color="#b09b77"/><stop offset=".28" stop-color="#e3cfa5"/><stop offset="1" stop-color="#997b53"/></linearGradient></defs><path d="M3.79.28L2.17.45a.15.15 0 0 0-.13.14v2.88c-.22-.04-.5-.03-.78.04-.67.16-1.15.57-1.06.92.08.36.7.56 1.36.39 1.04-.27 1.07-.86 1.07-.86v-2.8c0-.03.03-.06.06-.07L3.82.97c.07 0 .13-.07.13-.14v-.4a.15.15 0 0 0-.16-.15zm.85.58L3.12 2.38h.87v2.17h-.87l1.52 1.52 1.52-1.52H5.3V2.38h.87z" fill="#1a1a1a" stroke-width=".12"/></svg>

<?xml version="1.0" encoding="UTF-8" standalone="no"?>
<svg
   xmlns:dc="http://purl.org/dc/elements/1.1/"
   xmlns:cc="http://creativecommons.org/ns#"
   xmlns:rdf="http://www.w3.org/1999/02/22-rdf-syntax-ns#"
   xmlns:svg="http://www.w3.org/2000/svg"
   xmlns="http://www.w3.org/2000/svg"
   xmlns:sodipodi="http://sodipodi.sourceforge.net/DTD/sodipodi-0.dtd"
   xmlns:inkscape="http://www.inkscape.org/namespaces/inkscape"
   width="24"
   height="24"
   viewBox="0 0 6.35 6.35"
   version="1.1"
   id="svg25"
   sodipodi:docname="soundconverter.svg"
   inkscape:version="0.92.4 (5da689c313, 2019-01-14)">
  <metadata
     id="metadata29">
    <rdf:RDF>
      <cc:Work
         rdf:about="">
        <dc:format>image/svg+xml</dc:format>
        <dc:type
           rdf:resource="http://purl.org/dc/dcmitype/StillImage" />
        <dc:title></dc:title>
      </cc:Work>
    </rdf:RDF>
  </metadata>
  <sodipodi:namedview
     pagecolor="#ffffff"
     bordercolor="#666666"
     borderopacity="1"
     objecttolerance="10"
     gridtolerance="10"
     guidetolerance="10"
     inkscape:pageopacity="0"
     inkscape:pageshadow="2"
     inkscape:window-width="1138"
     inkscape:window-height="480"
     id="namedview27"
     showgrid="false"
     inkscape:zoom="9.8333333"
     inkscape:cx="1.0677966"
     inkscape:cy="12"
     inkscape:window-x="0"
     inkscape:window-y="25"
     inkscape:window-maximized="0"
     inkscape:current-layer="svg25" />
  <defs
     id="defs21">
    <linearGradient
       id="b">
      <stop
         offset="0"
         id="stop2" />
      <stop
         offset="1"
         stop-opacity="0"
         id="stop4" />
    </linearGradient>
    <linearGradient
       id="a">
      <stop
         offset="0"
         stop-color="#000200"
         id="stop7" />
      <stop
         offset="1"
         stop-color="#000200"
         stop-opacity="0"
         id="stop9" />
    </linearGradient>
    <linearGradient
       id="c"
       x1="24.82"
       x2="25"
       y1="15.38"
       y2="37.28"
       gradientTransform="matrix(.79363 0 0 .9639 65.3 -7.76)"
       gradientUnits="userSpaceOnUse">
      <stop
         offset="0"
         stop-color="#eacfb0"
         id="stop12" />
      <stop
         offset=".24"
         stop-color="#b09b77"
         id="stop14" />
      <stop
         offset=".28"
         stop-color="#e3cfa5"
         id="stop16" />
      <stop
         offset="1"
         stop-color="#997b53"
         id="stop18" />
    </linearGradient>
  </defs>
  <path
     d="M 3.79,0.28 2.17,0.45 A 0.15,0.15 0 0 0 2.04,0.59 V 3.47 C 1.82,3.43 1.54,3.44 1.26,3.51 0.59000003,3.67 0.11,4.08 0.2,4.43 0.28,4.79 0.90000003,4.99 1.56,4.82 2.6,4.55 2.63,3.96 2.63,3.96 V 1.16 C 2.63,1.13 2.66,1.1 2.69,1.09 L 3.82,0.97 C 3.89,0.97 3.95,0.9 3.95,0.83 V 0.43 A 0.15,0.15 0 0 0 3.79,0.28 Z M 4.64,0.86 3.12,2.38 H 3.99 V 4.55 H 3.12 L 4.64,6.07 6.16,4.55 H 5.3 V 2.38 h 0.87 z"
     id="path23"
     inkscape:connector-curvature="0"
     style="fill:#1a1a1a;stroke-width:0.12" />
</svg>
